build/category/CancelMegaphoneOutline.svg

<svg xmlns="http://www.w3.org/2000/svg" fill="none" viewBox="0 0 24 24" focusable="false"><path d="M0 0H24V24H0z"/><path fill="#74767B" fill-rule="evenodd" d="M5.9242 2.24268C5.70529 1.95816 5.29718 1.90497 5.01267 2.12388C4.72815 2.34279 4.67496 2.75089 4.89387 3.03541L19.2983 21.7572C19.5172 22.0418 19.9253 22.0949 20.2099 21.876C20.4944 21.6571 20.5476 21.249 20.3287 20.9645L19.9999 20.5372L19.9999 5.30388C19.9999 4.58591 19.4179 4.00388 18.6999 4.00388L17.5478 4.00388C16.9167 4.00388 16.38 4.46411 16.2837 5.08776C16.0245 6.7668 14.5794 8.00588 12.8805 8.00588L10.3584 8.00588L5.9242 2.24268ZM18.6999 5.30388L18.6999 18.8476L11.3586 9.30588L12.8805 9.30588C15.2148 9.30588 17.2012 7.60777 17.5657 5.30388L18.6999 5.30388ZM6.98145 8.00588C7.04333 8.00588 7.1017 8.03462 7.13944 8.08366L7.70823 8.82294C7.86002 9.02022 7.71938 9.30588 7.47047 9.30588L6.98145 9.30588C6.04256 9.30588 5.28145 10.067 5.28145 11.0059L5.28145 13.0069C5.28145 13.9458 6.04256 14.7069 6.98145 14.7069L12.0384 14.7069C12.1625 14.7069 12.2797 14.7646 12.3554 14.863L13.0298 15.7396C13.1128 15.8474 13.0258 16.0069 12.8896 16.0069L11.7696 16.0069L11.7696 18.707C11.7696 19.9733 10.743 20.9999 9.47666 20.9999C8.37463 20.9999 7.42848 20.2159 7.22368 19.1331L6.6285 15.9863C5.13797 15.8117 3.98145 14.5443 3.98145 13.0069L3.98145 11.0059C3.98145 9.34902 5.32459 8.00588 6.98145 8.00588ZM8.01994 11C7.46765 11 7.01994 11.4502 7.01994 12C7.01994 12.5498 7.46765 13 8.01994 13C8.57222 13 9.01994 12.5498 9.01994 12C9.01994 11.4502 8.57222 11 8.01994 11ZM8.50103 18.8915L7.95703 16.0153L10.4696 16.0153L10.4696 18.707C10.4696 19.2554 10.025 19.6999 9.47666 19.6999C8.99944 19.6999 8.58972 19.3604 8.50103 18.8915Z"/></svg>

<svg xmlns="http://www.w3.org/2000/svg" fill="none" viewBox="0 0 24 24" focusable="false"><path fill="#74767B" fill-rule="evenodd" d="M5.01 2.12c.28-.22.69-.17.91.12L10.35 8h2.53c1.69 0 3.14-1.24 3.4-2.92.09-.62.63-1.08 1.26-1.08h1.15c.72 0 1.31.58 1.31 1.3v15.23l.32.43c.22.28.17.69-.12.91-.28.22-.69.17-.91-.12L4.89 3.03a.643.643 0 0 1 .12-.91m13.68 16.72V5.3h-1.13c-.36 2.3-2.35 4-4.68 4h-1.53zM6.98 8c.06 0 .12.03.15.08l.57.74c.15.2.01.48-.23.48h-.49c-.94 0-1.7.76-1.7 1.7v2c0 .94.76 1.7 1.7 1.7h5.05c.13 0 .24.06.32.16l.67.87c.09.11 0 .27-.14.27h-1.12v2.7c0 1.27-1.02 2.29-2.29 2.29-1.1 0-2.05-.78-2.25-1.86l-.6-3.15A2.99 2.99 0 0 1 3.98 13v-2c0-1.66 1.34-3 3-3m1.04 3c-.56 0-1 .45-1 1 0 .54.44 1 1 1 .55 0 1-.46 1-1 0-.55-.45-1-1-1m.48 7.89-.55-2.88h2.51v2.69c0 .55-.44 1-.99 1-.48 0-.89-.34-.97-.81"/></svg>
